public/assets/images/bag.svg

<svg fill="none" height="12" viewBox="0 0 11 12" width="11" xmlns="http://www.w3.org/2000/svg"><path d="m9.20081 2.38564h-.8675c-.093-.65259-.42993-1.25204-.94972-1.689698-.51978-.437659-1.18802-.6845577-1.88359-.695942-.69557.0113843-1.36381.258283-1.88359.695942-.51979.437658-.85672 1.037108-.94972 1.689698h-.86708c-.47707.0003-.934522.17978-1.271927.49904-.337405.31925-.52718765.7522-.527683 1.20378v6.20834c.00042749.4515.190081.8844.527342 1.2038.337261.3193.794578.4989 1.271588.4994h7.40163c.4771-.0004.93454-.1799 1.27194-.4993.3373-.3193.5271-.7523.5275-1.2039v-6.20834c-.0005-.45151-.1902-.88439-.5275-1.20364-.3373-.31924-.79469-.49877-1.27169-.49918zm-3.70081-1.50084c.44834.009225.87993.163 1.22342.4359.34348.2729.5783.64859.66562 1.06494h-3.77808c.08732-.41635.32214-.79204.66562-1.06494.34349-.2729.77508-.426675 1.22342-.4359zm4.5649 9.412c-.0002.2169-.09135.4249-.25335.5783s-.38166.2398-.61082.2401h-7.40154c-.22915-.0004-.44879-.0867-.61077-.2401-.16199-.1535-.253088-.3614-.253335-.5783v-6.20834c.00027-.21687.091405-.42479.253415-.57814s.38166-.23962.61077-.23988h7.40163c.22908.0003.44869.08659.61066.23993.16197.15335.25304.36124.25334.57809z" fill="#fff"/></svg>

<svg
          className="cursor-pointer"
          width="11"
          height="12"
          viewBox="0 0 11 12"
          fill="none"
          xmlns="http://www.w3.org/2000/svg"
        >
          <path
            d="M9.20081 2.38564H8.33331C8.24031 1.73305 7.90338 1.1336 7.38359 0.695942C6.86381 0.258283 6.19557 0.0113843 5.5 0C4.80443 0.0113843 4.13619 0.258283 3.61641 0.695942C3.09662 1.1336 2.75969 1.73305 2.66669 2.38564H1.79961C1.32254 2.38594 0.865088 2.56542 0.527683 2.88468C0.190278 3.20393 0.000495346 3.63688 0 4.08846V10.2968C0.00042749 10.7483 0.190081 11.1812 0.527342 11.5006C0.864603 11.8199 1.32192 11.9995 1.79893 12H9.20056C9.67766 11.9996 10.1351 11.8201 10.4725 11.5007C10.8098 11.1814 10.9996 10.7484 11 10.2968V4.08846C10.9995 3.63695 10.8098 3.20407 10.4725 2.88482C10.1352 2.56558 9.67781 2.38605 9.20081 2.38564ZM5.5 0.8848C5.94834 0.894025 6.37993 1.0478 6.72342 1.3207C7.0669 1.5936 7.30172 1.96929 7.38904 2.38564H3.61096C3.69828 1.96929 3.9331 1.5936 4.27658 1.3207C4.62007 1.0478 5.05166 0.894025 5.5 0.8848ZM10.0649 10.2968C10.0647 10.5137 9.97355 10.7217 9.81155 10.8751C9.64955 11.0285 9.42989 11.1149 9.20073 11.1152H1.79919C1.57004 11.1148 1.3504 11.0285 1.18842 10.8751C1.02643 10.7216 0.935332 10.5137 0.935085 10.2968V4.08846C0.935355 3.87159 1.02649 3.66367 1.1885 3.51032C1.35051 3.35697 1.57016 3.2707 1.79927 3.27044H9.2009C9.42998 3.27074 9.64959 3.35703 9.81156 3.51037C9.97353 3.66372 10.0646 3.87161 10.0649 4.08846V10.2968Z"
            fill="white"
            fillOpacity="0.8"
          />
        </svg>
